!!!!SEGMENT: Fsc2004-Regem_regum_Dominum--Bologna_Q19.krn
!!!id: Fsc2004
!!!AGN: Motet
!!!SCT: Seay (1979)
!!!voices: 4
!!!COM: Costanzo Festa
!!!OTL: Regem regum Dominum (Bologna Q19)
**kern	**kern	**kern	**kern
*part4	*part3	*part2	*part1
*staff4	*staff3	*staff2	*staff1
*I"Bassus	*I"Tenor	*I"Altus	*I"Superius
*I'B	*I'T	*I'A	*I'S
*clefF4	*clefGv2	*clefGv2	*clefG2
*k[b-]	*k[b-]	*k[b-]	*k[b-]
*F:	*F:	*F:	*F:
*M2/1	*M2/1	*M2/1	*M2/1
*met(C|)	*met(C|)	*met(C|)	*met(C|)
!!section: Prima pars: Regem regum Dominum
!!!OMD: Prima pars: Regem regum Dominum
=1	=1	=1	=1
0F	0F	0c	0f
=2	=2	=2	=2
1F	1A	1c	1f
1D	1A	1d	1f
=3	=3	=3	=3
1D	1A	1d	1f
[1BB-y	[1d	[1f	[1b-y
=4	=4	=4	=4
2BB-]	2d]	2f]	2b-]
2F	2c	2f	2a
[1F	[1c	[1f	[1a
=5	=5	=5	=5
1F]	1c]	0f_	0a_
1r	1r	.	.
=6	=6	=6	=6
1F	1r	1f]	1a]
1G	1B-y	1r	1r
=7	=7	=7	=7
1A	1c	0r	1r
2B-y	1d	.	1f
2B-y	.	.	.
=8	=8	=8	=8
1G	2e-i	1B-y	1g
.	2e-i	.	.
1F	1c	1c	1a
=9	=9	=9	=9
0r	1B-y	1d	2b-y
.	.	.	2b-y
.	1r	2e-i	1g
.	.	2e-i	.
=10	=10	=10	=10
1F	1r	1c	1f
1G	1B-y	1B-y	1r
=11	=11	=11	=11
1A	1c	0r	1r
2B-y	1d	.	1f
2B-y	.	.	.
=12	=12	=12	=12
1G	2e-i	1B-y	1g
.	2e-i	.	.
1F	1c	1c	1a
=13	=13	=13	=13
1r	1B-y	1d	2b-y
.	.	.	2b-y
1C	1r	2e-i	1g
.	.	2e-i	.
=14	=14	=14	=14
1D	1F	1d	2f
.	.	.	2.b-y
1E	1G	2B-y	.
.	.	.	4g
.	.	2e-i	[2cc
=15	=15	=15	=15
2F	1A	2c	4cc]
.	.	.	4a
2F	.	1f	1dd
1D	2B-y	.	.
.	2B-y	4e	2b-y
.	.	4d	.
=16	=16	=16	=16
1C	1G	4e	1cc
.	.	4d	.
.	.	4c	.
.	.	4B-y	.
2r	1F	2A	2r
[2F	.	[2f	[2f
=17	=17	=17	=17
2F]	2r	2f]	2f]
2E	1c	2g	2e
2F	.	2f	2f
2BB-y	2B-y	2d	2g
=18	=18	=18	=18
1F	2c	1f	1f
.	2F	.	.
2r	1c	2r	2r
[2F	.	[2f	[2f
=19	=19	=19	=19
2F]	2r	2f]	2f]
2E	1c	2g	2e
2F	.	2f	2f
2BB-y	2B-y	2d	2g
=20	=20	=20	=20
1F	2c	1f	1a
.	2F	.	.
1C	1c	2r	1b-y
.	.	2e	.
=21	=21	=21	=21
1D	1r	1f	1a
1C	1G	2e	1cc
.	.	[2g	.
=22	=22	=22	=22
1r	1A	2g]	1r
.	.	2f	.
1C	1G	2e	1cc
.	.	2c	.
=23	=23	=23	=23
1D	1r	1f	1a
1C	1G	2e	1cc
.	.	[2g	.
=24	=24	=24	=24
1r	1A	2g]	2r
.	.	2f	2.cc
1E-i	1G	2g	.
.	.	.	4b-y
.	.	2c	4a
.	.	.	4g
=25	=25	=25	=25
1D	1A	0d	4f
.	.	.	4g
.	.	.	4a
.	.	.	4f
1BB-y	1B-y	.	4g
.	.	.	4f
.	.	.	4e
.	.	.	4d
=26	=26	=26	=26
1C	2G	0c	2e
.	2F	.	1f
1C	1G	.	.
.	.	.	2e
=27	=27	=27	=27
[0F	1F	0c	1f
.	2r	.	1r
.	[2A	.	.
=28	=28	=28	=28
0F]	4A]	0r	1f
.	4B-y	.	.
.	2.c	.	.
.	.	.	1cc
.	4B-y	.	.
.	4A	.	.
.	4G	.	.
=29	=29	=29	=29
0r	1A	1c	1cc
.	1G	1g	1b-y
=30	=30	=30	=30
0r	0r	1g	1.dd
.	.	1f	.
.	.	.	2cc
=31	=31	=31	=31
0r	1F	1.a	0cc
.	1c	.	.
.	.	2g	.
=32	=32	=32	=32
1C	1c	0g	0r
1G	1B-y	.	.
=33	=33	=33	=33
1G	1.d	0r	1r
1F	.	.	1f
.	2c	.	.
=34	=34	=34	=34
1.A	1c	1r	1cc
.	1r	1c	1cc
2G	.	.	.
=35	=35	=35	=35
1G	0r	1g	1b-y
1r	.	1g	[1dd
=36	=36	=36	=36
0r	1r	1f	2dd]
.	.	.	2cc
.	1F	[1a	[1cc
=37	=37	=37	=37
1r	1c	2a]	1cc]
.	.	2g	.
1C	1c	[1g	2r
.	.	.	2g
=38	=38	=38	=38
1.G	1B-y	1g]	1.b-y
.	[1d	2r	.
2G	.	2d	2b-y
=39	=39	=39	=39
1F	2d]	1f	1a
.	2c	.	.
[1A	1c	1e	[1cc
=40	=40	=40	=40
2A]	0r	1e	2cc]
2G	.	.	2b-y
1G	.	1g	1b-y
=41	=41	=41	=41
1C	0r	2e	1g
.	.	2e	.
2.F	.	2.f	2.a
4G	.	4e	4g
=42	=42	=42	=42
2F	0r	2f	2a
2E	.	2.g	2b-y
1D	.	.	1f
.	.	4f	.
.	.	[2f	.
=43	=43	=43	=43
1C	1G	2f]	1g
.	.	2e	.
1r	[1B-y	4f	1f
.	.	4e	.
.	.	4d	.
.	.	4c	.
=44	=44	=44	=44
1r	2B-]	1d	1r
.	2B-y	.	.
1F	1A	1c	1f
=45	=45	=45	=45
1.C	1.c	1g	1.e
.	.	2g	.
2G	2B-y	2g	2d
=46	=46	=46	=46
1G	1B-y	2g	2d
.	.	2.G	1g
1E	1G	.	.
.	.	4A	.
.	.	4B-y	2g
.	.	4c	.
=47	=47	=47	=47
2D	2.A	2d	2f
1F	.	1c	1a
.	4G	.	.
.	2A	.	.
2E	2B-y	2G	[2g
=48	=48	=48	=48
1D	1F	2A	4g]
.	.	.	4f
.	.	2B-y	1f
1C	1G	[1c	.
.	.	.	2e
=49	=49	=49	=49
0F	1F	2c]	[0f
.	.	1A	.
.	1c	.	.
.	.	4G	.
.	.	4F	.
=50	=50	=50	=50
1r	1d	1B-y	0f]
1F	1f	1A	.
=51	=51	=51	=51
1G	2e	0r	0r
.	1d	.	.
1B-y	.	.	.
.	[2f	.	.
=52	=52	=52	=52
2A	2f]	0r	0r
1G	2e	.	.
.	2.d	.	.
[2F	.	.	.
.	8cL	.	.
.	8B-yJ	.	.
=53	=53	=53	=53
4F]	4A	0r	1r
4E	4G	.	.
4D	1c	.	.
4C	.	.	.
1D	.	.	1f
.	2B-y	.	.
=54	=54	=54	=54
1C	2A	1c	2.cc
.	2G	.	.
.	.	.	4cc
1r	1G	2.g	2b-y
.	.	.	2cc
.	.	4g	.
=55	=55	=55	=55
0r	1r	2f	2dd
.	.	2g	2b-y
.	1F	2a	1cc
.	.	2f	.
=56	=56	=56	=56
1C	2.c	1g	0r
.	4c	.	.
2.G	2B-y	1r	.
.	2c	.	.
4G	.	.	.
=57	=57	=57	=57
2F	2d	1r	1f
2G	2B-y	.	.
2A	1c	1c	2.cc
2F	.	.	.
.	.	.	4cc
=58	=58	=58	=58
1G	0r	2.g	2b-y
.	.	.	2cc
.	.	4g	.
1r	.	2f	2dd
.	.	2g	2b-y
=59	=59	=59	=59
1r	1F	2a	1cc
.	.	2f	.
1C	2.c	1g	1r
.	4c	.	.
=60	=60	=60	=60
2.G	2B-y	0r	0r
.	2c	.	.
4G	.	.	.
2F	2d	.	.
2G	2B-y	.	.
=61	=61	=61	=61
2A	1c	1r	1a
2F	.	.	.
1G	1r	1d	1b-y
=62	=62	=62	=62
0r	0r	1e	1g
.	.	1c	[1cc
=63	=63	=63	=63
0r	0r	1.f	2cc]
.	.	.	2a
.	.	.	1a
.	.	2d	.
=64	=64	=64	=64
0r	0r	1d	2r
.	.	.	1dd
.	.	2r	.
.	.	[2g	[2b-y
=65	=65	=65	=65
0r	0r	2g]	2b-]
.	.	1e	2g
.	.	.	1g
.	.	2c	.
=66	=66	=66	=66
0r	0r	1c	1.cc
.	.	[1f	.
.	.	.	2b-y
=67	=67	=67	=67
1r	1A	2f]	2a
.	.	2e	2g
1D	1B-y	2.d	1f
.	.	4c	.
=68	=68	=68	=68
1E	1G	4B-y	2e
.	.	4A	.
.	.	4G	2.g
.	.	4F	.
1C	[1c	1G	.
.	.	.	4f
.	.	.	4g
.	.	.	4e
=69	=69	=69	=69
1.F	2c]	1F	[0f
.	2A	.	.
.	1A	1r	.
2D	.	.	.
=70	=70	=70	=70
1D	2r	1F	2f]
.	1d	.	2d
2r	.	1B-y	1d
[2G	[2B-y	.	.
=71	=71	=71	=71
2G]	2B-]	1G	2r
1E	2G	.	1g
.	1G	[1g	.
2C	.	.	[2e
=72	=72	=72	=72
1C	1.c	2g]	2e]
.	.	2f	2c
[1c	.	2e	1c
.	2B-y	2d	.
=73	=73	=73	=73
2c]	2A	1c	1.cc
2B-y	2G	.	.
2A	2.F	1r	.
2G	.	.	2b-y
.	4G	.	.
=74	=74	=74	=74
2F	4A	2r	2a
.	4B-y	.	.
2E	1c	2G	2g
1D	.	2A	1f
.	2B-y	2F	.
=75	=75	=75	=75
1C	1c	1G	2e
.	.	.	2.g
2D	2A	1d	.
.	.	.	4f
2BB-y	2B-y	.	[2f
=76	=76	=76	=76
1C	1G	1c	2f]
.	.	.	2e
2r	1F	2A	2f
[2F	.	[2f	[2a
=77	=77	=77	=77
2F]	2r	2f]	2a]
2E	1c	2g	2g
2F	.	2f	2a
2BB-y	2B-y	2d	2b-y
=78	=78	=78	=78
1F	2c	1f	1a
.	2F	.	.
2r	1c	2r	2r
[2F	.	[2f	[2a
=79	=79	=79	=79
2F]	2r	2f]	2a]
2E	1c	2g	2g
2F	.	2f	2a
2BB-y	2B-y	2d	2b-y
=80	=80	=80	=80
1F	2c	1f	1a
.	2F	.	.
1C	1c	2r	1cc
.	.	2e	.
=81	=81	=81	=81
1D	1r	1f	1a
1C	1G	2e	1cc
.	.	[2g	.
=82	=82	=82	=82
1r	1A	2g]	1r
.	.	2f	.
1C	1G	2e	1cc
.	.	2c	.
=83	=83	=83	=83
1D	1r	1f	1a
1C	1G	2e	1cc
.	.	[2g	.
=84	=84	=84	=84
1r	1A	2g]	2r
.	.	2f	2.cc
1E-i	1G	2g	.
.	.	.	4b-y
.	.	2c	4a
.	.	.	4g
=85	=85	=85	=85
1D	1A	0d	4f
.	.	.	4g
.	.	.	4a
.	.	.	4f
1BB-y	1B-y	.	4g
.	.	.	4f
.	.	.	4e
.	.	.	4d
=86	=86	=86	=86
1C	2G	0c	2e
.	2F	.	1f
1C	1G	.	.
.	.	.	2e
=	=	=	=
00F	00F	00c	00f
=||	=||	=||	=||
*M2/1	*M2/1	*M2/1	*M2/1
*met(C|)	*met(C|)	*met(C|)	*met(C|)
!!section: Secunda pars: Vidi turbam
!!!OMD: Secunda pars: Vidi turbam
0r	1r	0r	1.f
.	[1F	.	.
.	.	.	2g
=87	=87	=87	=87
1r	2F]	1.F	2a
.	2G	.	2b-y
[1F	2A	.	1cc
.	2B-y	2G	.
=88	=88	=88	=88
2F]	1c	2A	1cc
2G	.	2B-y	.
2A	1c	1c	[1c
2B-y	.	.	.
=89	=89	=89	=89
1c	1.c	1c	2c]
.	.	.	2d
1c	.	[1c	2e
.	2d	.	2f
=90	=90	=90	=90
1.C	2e	2c]	1g
.	2f	2d	.
.	1g	2e	1g
2D	.	2f	.
=91	=91	=91	=91
2E	1g	1g	1r
2F	.	.	.
1G	1r	1g	1b-y
=92	=92	=92	=92
1G	1g	1d	1b-y
1A	1e	2.c	[1a
.	.	4B-y	.
=93	=93	=93	=93
1F	1f	4c	1a]
.	.	4A	.
.	.	2.d	.
1G	1d	.	[1g
.	.	4c	.
.	.	4B-y	.
.	.	4A	.
=94	=94	=94	=94
1G	1d	1B-y	2g]
.	.	.	2g
[1C	[1e	[1c	[1g
=95	=95	=95	=95
0C_	0e_	0c]	1g]
.	.	.	1r
=96	=96	=96	=96
1C]	1e]	1r	1g
1r	1r	1c	1cc
=97	=97	=97	=97
0r	0r	1f	2cc
.	.	.	2cc
.	.	2f	1a
.	.	2f	.
=98	=98	=98	=98
1r	1G	1d	1b-y
1C	1c	1e	1cc
=99	=99	=99	=99
1F	2c	1f	0r
.	2c	.	.
2F	1A	[1d	.
2F	.	.	.
=100	=100	=100	=100
1D	1B-y	1d]	0r
1E	1c	1r	.
=101	=101	=101	=101
1F	0r	1.f	1r
1r	.	.	[1f
.	.	2e	.
=102	=102	=102	=102
0r	1r	2f	2f]
.	.	2g	2e
.	[1F	1a	2f
.	.	.	2g
=103	=103	=103	=103
1.F	2F]	1f	1a
.	2E	.	.
.	2F	[1F	1f
2E	2G	.	.
=104	=104	=104	=104
2F	1A	2F]	1.cc
2G	.	2E	.
1A	1F	2F	.
.	.	2G	2b-y
=105	=105	=105	=105
1F	1r	1A	2cc
.	.	.	2dd
1E	1G	4G	1ee
.	.	4A	.
.	.	4B-y	.
.	.	4c	.
=106	=106	=106	=106
0D	1A	1d	1ff
.	1B-y	1d	1dd
=107	=107	=107	=107
[0C	1c	0G	[0ee
.	2r	.	.
.	2c	.	.
=108	=108	=108	=108
0C_	2g	2r	0ee_
.	2g	2c	.
.	2e	2g	.
.	2c	2g	.
=109	=109	=109	=109
0C_	1g	2e	0ee_
.	.	2c	.
.	2e	1g	.
.	2c	.	.
=110	=110	=110	=110
0C]	1g	2e	0ee]
.	.	2c	.
.	1c	1g	.
=111	=111	=111	=111
1r	1e	1c	2r
.	.	.	2g
2r	2g	2e	2cc
2C	2g	2g	2cc
=112	=112	=112	=112
2G	2e	2g	2b-y
2G	2d	2G	2b-y
2E	1g	2G	2g
2C	.	[2g	2cc
=113	=113	=113	=113
1G	2e	2g]	2b-y
.	2d	2d	2.dd
2E	1g	1e	.
.	.	.	4cc
2C	.	.	[2cc
=114	=114	=114	=114
1G	1g	1d	2cc]
.	.	.	2bni
[1C	1r	[1e	[1cc
=115	=115	=115	=115
1C]	1G	1e]	0cc]
1r	[1c	1r	.
=116	=116	=116	=116
1F	2c]	1f	1a
.	2c	.	.
[1A	1c	1e	[1a
=117	=117	=117	=117
2A]	1c	1e	2a]
2A	.	.	2a
1A	1e	1c	1a
=118	=118	=118	=118
1D	1f	0d	1a
[1B-y	2.f	.	[1dd
.	8eL	.	.
.	8fJ	.	.
=119	=119	=119	=119
1B-]	2g	1G	1dd]
.	2d	.	.
1A	2e	1c	1cc
.	[2f	.	.
=120	=120	=120	=120
1G	2f]	1d	0b-y
.	4e	.	.
.	4d	.	.
1G	1e	1B-y	.
=121	=121	=121	=121
[0F	0f	[0c	0a
=122	=122	=122	=122
0F]	1r	0c]	1r
.	[1A	.	[1cc
=123	=123	=123	=123
0r	2A]	0r	2cc]
.	2A	.	2cc
.	1c	.	1a
=124	=124	=124	=124
0r	1d	0r	1b-y
.	1c	.	1a
=125	=125	=125	=125
1r	1B-y	1r	1g
[1D	[1A	[1f	[1a
=126	=126	=126	=126
1D]	1A]	1f]	1a]
1F	1r	1d	1r
=127	=127	=127	=127
1G	0r	1e	0r
1F	.	1d	.
=128	=128	=128	=128
1E	1r	1c	1cc
1D	1f	2d	2.a
.	.	2d	.
.	.	.	8gL
.	.	.	8aJ
=129	=129	=129	=129
0r	2d	2f	2b-y
.	2c	1e	1a
.	1B-y	.	.
.	.	2d	2g
=130	=130	=130	=130
0r	1A	1e	1a
.	1r	1r	1r
=131	=131	=131	=131
0C	0e	0g	0cc
=132	=132	=132	=132
1F	1c	1f	1a
1F	1c	1f	1a
=133	=133	=133	=133
1.F	1.f	1.c	1.a
2C	2e	2c	2g
=134	=134	=134	=134
0C	1.e	1c	[0g
.	.	2r	.
.	4d	2c	.
.	4c	.	.
=135	=135	=135	=135
1r	1c	1e	0g]
1C	1r	1e	.
=136	=136	=136	=136
1.G	1G	1d	0r
.	[1d	1r	.
2F	.	.	.
=137	=137	=137	=137
2G	2d]	0r	0r
2A	2c	.	.
1B-y	2d	.	.
.	2e	.	.
=138	=138	=138	=138
2F	1f	0r	0r
1A	.	.	.
.	2c	.	.
2G	2e	.	.
=139	=139	=139	=139
2F	2d	1r	0r
2E	2e	.	.
1D	2f	1F	.
.	2d	.	.
=140	=140	=140	=140
1C	1e	2.c	1c
.	.	4c	.
1r	1r	2c	2.g
.	.	2B-y	.
.	.	.	4g
=141	=141	=141	=141
0r	0r	2c	2g
.	.	2d	2f
.	.	1e	2g
.	.	.	2a
=142	=142	=142	=142
0r	0r	2B-y	1b-y
.	.	1d	.
.	.	.	2f
.	.	2c	2a
=143	=143	=143	=143
1r	0r	2B-y	2g
.	.	2A	2f
1C	.	1G	2f
.	.	.	2e
=144	=144	=144	=144
1.F	1A	1F	1f
.	[1c	1r	1r
2G	.	.	.
=145	=145	=145	=145
2A	2c]	0r	0r
2B-y	2d	.	.
1c	2e	.	.
.	2f	.	.
=146	=146	=146	=146
1G	1g	0r	0r
1A	2c	.	.
.	2f	.	.
=147	=147	=147	=147
1G	2e	0r	0r
.	2.d	.	.
2E	.	.	.
.	4c	.	.
2F	[2c	.	.
=148	=148	=148	=148
1D	2c]	1r	1r
.	2Bni	.	.
1C	1c	2r	1g
.	.	[2c	.
=149	=149	=149	=149
0r	0r	2c]	1cc
.	.	1f	.
.	.	.	2.cc
.	.	[2f	.
.	.	.	4cc
=150	=150	=150	=150
0r	0r	4f]	2cc
.	.	4f	.
.	.	2f	2a
.	.	2d	2b-y
.	.	2e	[2cc
=151	=151	=151	=151
1r	1r	1f	2cc]
.	.	.	1a
2r	2r	1d	.
[2BB-y	[2d	.	[2b-y
=152	=152	=152	=152
2BB-]	2d]	2f	2b-]
2C	2c	2e	2a
2E	2B-y	2e	2g
2F	2A	2c	2f
=153	=153	=153	=153
1C	1G	1c	1e
1F	1F	1c	1f
=154	=154	=154	=154
1r	1r	1r	1r
[1F	[1c	[1f	[1a
=155	=155	=155	=155
1F]	1c]	1f]	1a]
1F	1c	1f	1a
=156	=156	=156	=156
1F	1c	1f	1a
[1BB-y	[1d	[1f	[1b-y
=157	=157	=157	=157
1BB-]	1d]	1f]	1b-]
[1F	1c	[1f	1a
=158	=158	=158	=158
1F]	2r	1f]	1r
.	2c	.	.
1C	2G	1e	[1cc
.	[2c	.	.
=159	=159	=159	=159
0F	4c]	1f	1cc]
.	4B-y	.	.
.	2.A	.	.
.	.	1c	1a
.	4G	.	.
.	[2F	.	.
=160	=160	=160	=160
1D	4F]	4d	1b-y
.	4G	4e	.
.	4A	4f	.
.	4F	4d	.
[1C	2G	2e	1cc
.	2A	[2f	.
=161	=161	=161	=161
1C]	1G	2f]	1cc
.	.	2e	.
[1F	[1F	1f	1r
=162	=162	=162	=162
1F]	1F]	1r	1cc
1r	1r	1f	1cc
=163	=163	=163	=163
0r	0r	1f	2cc
.	.	.	2cc
.	.	2f	1dd
.	.	2f	.
=164	=164	=164	=164
0C	0c	1g	1r
.	.	1e	[1cc
=165	=165	=165	=165
0F	0A	1f	1cc]
.	.	1a	1cc
=166	=166	=166	=166
1G	1B-y	1g	1b-y
[1A	[1c	[1e	[1a
=167	=167	=167	=167
1A]	1c]	1e]	1a]
[1F	1c	[1f	1a
=168	=168	=168	=168
1F]	1r	1f]	1r
1r	1c	1r	1a
=169	=169	=169	=169
1F	2c	1f	2a
.	1c	.	1a
2F	.	2f	.
[2F	2c	[2f	2a
=170	=170	=170	=170
2F]	2c	2f]	2.a
2F	2c	2f	.
.	.	.	4a
2F	1c	2f	2a
2F	.	2f	[2a
=171	=171	=171	=171
1F	2r	1f	2a]
.	1c	.	2a
1A	.	2e	2.a
.	2c	2e	.
.	.	.	4a
=172	=172	=172	=172
2A	1c	2.e	2a
2.A	.	.	2.cc
.	.	4e	.
.	2c	2e	.
4A	.	.	4b-y
2A	2c	[2f	[2a
=173	=173	=173	=173
0B-y	0d	4f]	2a]
.	.	4e	.
.	.	4d	4g
.	.	4c	4f
.	.	1d	1g
=174	=174	=174	=174
1A	1c	1e	0a
2r	2r	2r	.
[2A	[2c	[2f	.
=175	=175	=175	=175
2A]	2c]	2f]	0r
2G	2B-y	2e	.
2F	2A	2d	.
2E	2G	2c	.
=176	=176	=176	=176
1D	1F	1B-y	1r
1C	1G	1c	[1cc
=177	=177	=177	=177
1r	1.c	1r	1cc]
1C	.	1g	1cc
.	2B-y	.	.
=178	=178	=178	=178
1.F	2.A	2f	1cc
.	.	1a	.
.	4G	.	.
.	2F	.	[1cc
2E	2G	2g	.
=179	=179	=179	=179
1F	1A	1f	1cc]
1C	2G	1e	1cc
.	[2c	.	.
=180	=180	=180	=180
1F	2c]	2r	1cc
.	1A	2.f	.
1D	.	.	[1dd
.	.	4g	.
.	2F	4a	.
.	.	4f	.
=181	=181	=181	=181
1BB-y	1B-y	2g	1dd]
.	.	1f	.
[1C	2.G	.	[1cc
.	.	4e	.
.	4F	4d	.
=182	=182	=182	=182
1C]	1G	1e	1cc]
1r	[1F	[1f	1r
=183	=183	=183	=183
1.F	2F]	1f]	0cc
.	2G	.	.
.	2A	1r	.
2G	2B-y	.	.
=184	=184	=184	=184
2A	2c	0r	1a
2B-y	2d	.	.
2c	2e	.	2g
2F	[2f	.	[2cc
=185	=185	=185	=185
1A	4f]	0r	2cc]
.	4e	.	.
.	4d	.	4bni
.	4c	.	4a
1G	1d	.	1bni
=186	=186	=186	=186
1C	1c	1r	0cc
1r	2F	1c	.
.	2G	.	.
=187	=187	=187	=187
2F	2A	2c	0r
2G	2E	1c	.
2A	2F	.	.
2E	2G	2c	.
=188	=188	=188	=188
2F	2A	2c	0r
2G	2E	2c	.
2A	2F	2c	.
2E	2G	2c	.
=189	=189	=189	=189
2F	2A	2c	0r
2E	2G	2c	.
1F	1A	1d	.
=190	=190	=190	=190
1C	1G	1c	1g
1G	2r	2d	1g
.	2B-y	[2e	.
=191	=191	=191	=191
1A	1c	2e]	1e
.	.	2.c	.
1A	2A	.	1f
.	.	4d	.
.	[2c	4e	.
.	.	4c	.
=192	=192	=192	=192
1G	2c]	1d	0g
.	4Bni	.	.
.	4A	.	.
1G	1Bni	1d	.
=193	=193	=193	=193
0C	0c	[0e	[0g
=194	=194	=194	=194
1r	1r	0e]	0g]
1C	[1c	.	.
=195	=195	=195	=195
2.F	1c]	0r	0r
4G	.	.	.
4A	1c	.	.
4B-y	.	.	.
[2c	.	.	.
=196	=196	=196	=196
2c]	0d	0r	0r
4Bni	.	.	.
4A	.	.	.
1Bni	.	.	.
=197	=197	=197	=197
1c	1c	1r	0cc
1F	1r	[1f	.
=198	=198	=198	=198
0r	0r	1f]	1a
.	.	1d	1b-y
=199	=199	=199	=199
1C	0c	1e	1cc
2.F	.	1f	1cc
4G	.	.	.
=200	=200	=200	=200
4A	1c	1e	0r
4B-y	.	.	.
1c	.	.	.
.	[1d	1r	.
4Bni	.	.	.
4A	.	.	.
=201	=201	=201	=201
1Bni	1d]	0r	0r
1c	1c	.	.
=202	=202	=202	=202
1F	1A	1f	0cc
2E	2G	2g	.
[2F	[2A	2c	.
=203	=203	=203	=203
4F]	4A]	0f	1a
4E	4G	.	.
4D	4F	.	.
4C	4E	.	.
1D	2.F	.	1b-y
.	4G	.	.
=204	=204	=204	=204
0C	2A	0e	1cc
.	2G	.	.
.	1G	.	1cc
=205	=205	=205	=205
1r	1r	1r	1r
1C	1G	1c	1e
=206	=206	=206	=206
2C	1G	2c	2e
1C	.	1c	1e
.	2A	.	.
[2C	[2G	[2c	[2e
=207	=207	=207	=207
2C]	2G]	2c]	2e]
2C	2A	2c	2e
2C	2G	2c	2e
2C	2A	2c	2e
=208	=208	=208	=208
2C	2G	2c	2e
1C	2A	1c	1e
.	2G	.	.
2C	2A	2c	2e
=209	=209	=209	=209
2C	2G	2c	2e
2C	2.A	2c	2e
[1D	.	1A	[1f
.	4G	.	.
.	4F	.	.
.	4E	.	.
=210	=210	=210	=210
1D]	1F	1B-y	1f]
1C	1G	1c	1e
=211	=211	=211	=211
2r	1r	1e	1g
2C	.	.	.
1F	1c	1f	1a
=212	=212	=212	=212
1C	1c	1e	1g
1D	1A	[1d	2f
.	.	.	2a
=213	=213	=213	=213
1BB-y	1B-y	1d]	2g
.	.	.	1f
[1C	[1G	[1c	.
.	.	.	4e
.	.	.	4d
=214	=214	=214	=214
1C]	1G]	1c]	1e
1F	1F	1c	1f
=215	=215	=215	=215
2r	2r	2r	2r
1F	1c	1f	1a
2F	2c	2f	2a
=216	=216	=216	=216
2F	2c	2f	2a
2F	2c	2f	2a
[1B-y	[1d	[1f	[1b-y
=217	=217	=217	=217
2B-]	2d]	2f]	2b-]
2F	2c	2f	2a
1F	1c	[1f	[1a
=218	=218	=218	=218
1F	2r	1f]	1a]
.	1c	.	.
1E	.	1r	1r
.	[2B-y	.	.
=219	=219	=219	=219
1D	2B-]	0r	0r
.	1A	.	.
2.F	.	.	.
.	[2c	.	.
4E	.	.	.
=220	=220	=220	=220
2.C	4c]	0r	0r
.	4B-y	.	.
.	2.G	.	.
4D	.	.	.
4E	.	.	.
4F	4A	.	.
[2G	[2B-y	.	.
=221	=221	=221	=221
4G]	4B-]	0r	0r
4F	4A	.	.
1F	4G	.	.
.	4F	.	.
.	1G	.	.
2E	.	.	.
=222	=222	=222	=222
0F	0F	1f	2r
.	.	.	1cc
.	.	1f	.
.	.	.	[2cc
=223	=223	=223	=223
0r	0r	2e	2cc]
.	.	2d	2b-y
.	.	2f	2a
.	.	2f	2cc
=224	=224	=224	=224
0r	0r	2e	2cc
.	.	2d	2b-y
.	.	2f	2a
.	.	2f	2cc
=225	=225	=225	=225
0r	0r	1c	2cc
.	.	.	1g
.	.	2r	.
.	.	[2g	[2b-y
=226	=226	=226	=226
0r	0r	2g]	2b-]
.	.	2f	2a
.	.	2e	2g
.	.	2d	2f
=227	=227	=227	=227
0r	0r	1e	1g
.	.	[1f	1f
=228	=228	=228	=228
0r	0r	1f]	1f
.	.	1r	1r
=229	=229	=229	=229
0C	0e	0g	0cc
=230	=230	=230	=230
1C	1e	1g	1cc
[1F	[1f	[1a	[1cc
=231	=231	=231	=231
1F]	1f]	1a]	1cc]
1C	1e	1g	1cc
=232	=232	=232	=232
1F	1f	1a	1cc
1F	1f	1a	1cc
=233	=233	=233	=233
1E	2g	1g	1cc
.	1c	.	.
[1D	.	[1f	[1dd
.	4Bni	.	.
.	4A	.	.
=234	=234	=234	=234
1D]	1Bni	2f]	1dd]
.	.	4e	.
.	.	4d	.
[1C	[1c	1g	[1ee
=235	=235	=235	=235
1C]	1c]	1.c	1ee]
1r	1r	.	[1cc
.	.	2B-y	.
=236	=236	=236	=236
1.c	1r	2A	2cc]
.	.	2G	2b-y
.	[1c	1F	2a
2B-y	.	.	2g
=237	=237	=237	=237
2A	2c]	1r	1f
2G	2B-y	.	.
1F	2A	[1c	1r
.	2G	.	.
=238	=238	=238	=238
1r	1F	2c]	1.cc
.	.	2B-y	.
[1c	1r	2A	.
.	.	2G	2b-y
=239	=239	=239	=239
2c]	1.c	1F	2a
2B-y	.	.	2g
2A	.	2r	2f
2G	2B-y	2E	2e
=240	=240	=240	=240
2F	2A	2F	2d
2E	2G	2G	2c
1D	2.F	2A	1f
.	.	2B-y	.
.	4G	.	.
=241	=241	=241	=241
[0C	2A	[0c	2.e
.	2.G	.	.
.	.	.	4f
.	.	.	2g
.	4F	.	.
.	2F	.	4c
.	.	.	4d
=242	=242	=242	=242
0C]	2.A	0c]	4e
.	.	.	4c
.	.	.	1f
.	4B-y	.	.
.	1G	.	.
.	.	.	2e
=243	=243	=243	=243
0r	0F	1c	1f
.	.	2r	1cc
.	.	2c	.
=244	=244	=244	=244
0r	0r	2f	2cc
.	.	2f	2cc
.	.	2.a	2.cc
.	.	4g	4b-y
=245	=245	=245	=245
2r	2r	2f	2a
2C	2c	2e	2g
2F	2c	1f	1f
2F	2c	.	.
=246	=246	=246	=246
2.A	2.c	0r	0r
4G	4B-y	.	.
2F	2A	.	.
2E	2G	.	.
=247	=247	=247	=247
1F	0F	1r	1r
2r	.	2r	2r
[2F	.	[2f	[2a
=248	=248	=248	=248
2F]	2r	2f]	2a]
2E	1c	2g	2g
2F	.	2f	2a
2BB-y	2B-y	2d	2b-y
=249	=249	=249	=249
1F	2c	1f	1a
.	2F	.	.
2r	1c	2r	2r
[2F	.	[2f	[2a
=250	=250	=250	=250
2F]	2r	2f]	2a]
2E	1c	2g	2g
2F	.	2f	2a
2BB-y	2B-y	2d	2b-y
=251	=251	=251	=251
1F	2c	1f	1a
.	2F	.	.
1C	1c	2r	1cc
.	.	2e	.
=252	=252	=252	=252
1D	1r	1f	1a
1C	1G	2e	1cc
.	.	[2g	.
=253	=253	=253	=253
1r	1A	2g]	1r
.	.	2f	.
1C	1G	2e	1cc
.	.	2c	.
=254	=254	=254	=254
1D	1r	1f	1a
1C	1G	2e	1cc
.	.	[2g	.
=255	=255	=255	=255
1r	1A	2g]	2r
.	.	2f	2.cc
1E-i	1G	2g	.
.	.	.	4b-y
.	.	2c	4a
.	.	.	4g
=256	=256	=256	=256
1D	1A	0d	4f
.	.	.	4g
.	.	.	4a
.	.	.	4f
1BB-y	1B-y	.	4g
.	.	.	4f
.	.	.	4e
.	.	.	4d
=257	=257	=257	=257
1C	2G	0c	2e
.	2F	.	1f
1C	1G	.	.
.	.	.	2e
=258	=258	=258	=258
00Fl	00Fl	00cl	00fl
==	==	==	==
*-	*-	*-	*-
!!!system-decoration: [*]
!!!RDF**kern: i = editorial accidental
!!!RDF**kern: l = terminal long
!!!ENC: Benjamin Ory
!!!END: 2021/1/15
!!!EED: Benjamin Ory
!!!EEV: 2021/04/23
!!!YEC: Copyright 2021 Benjamin Ory, All Rights Reserved
!!!ONB: Translated from MusicXML on 2021/04/23
